svgs/thin/camera-movie.svg

<svg xmlns="http://www.w3.org/2000/svg" viewBox="0 0 576 512"><!--! Font Awesome Pro 6.3.0 by @fontawesome - https://fontawesome.com License - https://fontawesome.com/license (Commercial License) Copyright 2023 Fonticons, Inc. --><path d="M555.7 260.5c-12.75-6.734-28.16-5.859-39.97 2.25l-64.11 42.56c-2.232 1.48-3.574 3.982-3.574 6.662c0 6.379 7.105 10.22 12.42 6.695l64.24-42.65c7.125-4.859 15.88-5.391 23.56-1.359c7.375 3.891 11.78 11.09 11.78 19.28v180.1c0 8.203-4.406 15.42-11.78 19.3c-7.625 4.047-16.5 3.5-23.69-1.453l-64.12-42.51c-5.314-3.525-12.41 .2871-12.41 6.664c0 2.68 1.344 5.182 3.578 6.664l64.02 42.45c6.594 4.531 14.25 6.844 21.97 6.844c6.188 0 12.41-1.5 18.09-4.5c12.75-6.688 20.34-19.2 20.34-33.45V293.1C576 279.7 568.4 267.2 555.7 260.5zM352 288h-328c-13.25 0-24 10.74-24 24v16c0 13.25 10.75 24 24 24h39.1v95.99c0 35.35 28.65 63.1 64 63.1L352 512c35.35 0 64-28.65 64-64v-96C416 316.7 387.3 288 352 288zM400 448c0 26.47-21.53 48-47.1 48H128c-26.47 0-47.1-21.53-47.1-48v-112H24c-4.412 0-8-3.59-8-8v-16c0-4.412 3.588-8 8-8h328c26.47 0 48 21.53 48 48L400 448zM128 64c-35.35 0-64 28.65-64 64s28.65 64 64 64s64-28.65 64-64S163.3 64 128 64zM128 176C101.5 176 80 154.5 80 128s21.53-48 47.1-48s48 21.53 48 48S154.5 176 128 176zM352 64c-35.35 0-64 28.65-64 64s28.65 64 64 64s64-28.65 64-64S387.3 64 352 64zM352 176c-26.47 0-48-21.53-48-48s21.53-48 48-48s48 21.53 48 48S378.5 176 352 176zM352 0c-46.77 0-89.8 26.22-111.1 66.77C217.8 26.22 174.8 0 128 0c-70.58 0-128 57.42-128 128s57.4 127.1 127.1 127.1L352 256c70.58 0 128-57.42 128-128S422.6 0 352 0zM352 240H128c-61.75 0-112-50.25-112-112s50.25-112 112-112c46.14 0 88.14 29.22 104.5 72.7c2.344 6.25 12.62 6.25 14.97 0C263.9 45.22 305.9 16 352 16c61.75 0 112 50.25 112 112S413.8 240 352 240z"/></svg>

<svg xmlns="http://www.w3.org/2000/svg" viewBox="0 0 576 512"><!-- Font Awesome Pro 6.0.0-alpha2 by @fontawesome - https://fontawesome.com License - https://fontawesome.com/license (Commercial License) --><path d="M555.656 260.545C542.906 253.811 527.5 254.686 515.688 262.795L451.574 305.357C449.342 306.838 448 309.34 448 312.02V312.055C448 318.434 455.105 322.244 460.42 318.715L524.656 276.061C531.781 271.201 540.531 270.67 548.219 274.701C555.594 278.592 560 285.795 560 293.982V474.045C560 482.248 555.594 489.467 548.219 493.342C540.594 497.389 531.719 496.842 524.531 491.889L460.414 449.379C455.1 445.854 448 449.666 448 456.043C448 458.723 449.344 461.225 451.578 462.707L515.594 505.154C522.188 509.686 529.844 511.998 537.563 511.998C543.75 511.998 549.969 510.498 555.656 507.498C568.406 500.811 576 488.295 576 474.045V293.982C576 279.748 568.406 267.248 555.656 260.545ZM352 288H24C10.746 288 0 298.744 0 312V328C0 341.254 10.746 352 24 352H64V448C64 483.346 92.654 512 128 512H352C387.346 512 416 483.346 416 448V352C416 316.654 387.346 288 352 288ZM400 448C400 474.467 378.467 496 352 496H128C101.533 496 80 474.467 80 448V336H24C19.588 336 16 332.41 16 328V312C16 307.588 19.588 304 24 304H352C378.467 304 400 325.533 400 352V448ZM128 64C92.654 64 64 92.654 64 128S92.654 192 128 192S192 163.346 192 128S163.346 64 128 64ZM128 176C101.533 176 80 154.467 80 128S101.533 80 128 80S176 101.533 176 128S154.467 176 128 176ZM352 64C316.654 64 288 92.654 288 128S316.654 192 352 192S416 163.346 416 128S387.346 64 352 64ZM352 176C325.533 176 304 154.467 304 128S325.533 80 352 80S400 101.533 400 128S378.467 176 352 176ZM352 0C305.234 0 262.203 26.219 240 66.766C217.797 26.219 174.766 0 128 0C57.422 0 0 57.422 0 128S57.422 256 128 256H352C422.578 256 480 198.578 480 128S422.578 0 352 0ZM352 240H128C66.25 240 16 189.75 16 128S66.25 16 128 16C174.141 16 216.141 45.219 232.516 88.703C234.859 94.953 245.141 94.953 247.484 88.703C263.859 45.219 305.859 16 352 16C413.75 16 464 66.25 464 128S413.75 240 352 240Z"/></svg>
